X: 1
T: The Penny Candle
R: reel
M: 4/4
L: 1/8
K: Dmaj
|:Ad d2 adfd|Adfa g2 ec|Ad d2 AGFD|E/F/G AB =c2 AG|
Ad d2 adfd|Adfa g2 fg|e/f/g ec d2 ed|cAGE ED D2:|
|:d2 fd Adfa|g2 fa gedB|=c2 ec Gcec|B/c/d ef g2 ec|
d2 fd Adfa|g2 fa gedB|cdec d2 ed|cAGE ED D2:|

composer: Paddy O'Brien
